img/brands/idalgo.svg

<svg width="240" height="74" viewBox="0 0 240 74" fill="none" xmlns="http://www.w3.org/2000/svg">
<g clip-path="url(#clip0_54_99)">
<path fill-rule="evenodd" clip-rule="evenodd" d="M37.4199 0L39.8357 1.45877L42.4907 0.364692L44.6832 2.13952L47.4657 1.43445L49.3951 3.50914L52.2414 3.20118L53.8679 5.52711L56.7302 5.63246L58.0218 8.16099L60.8441 8.67156L61.777 11.3622L64.5037 12.2617L65.0538 15.0577L67.629 16.3301L67.7965 19.1747L70.1724 20.8036L69.9491 23.6482L72.0779 25.6014L71.464 28.3811L73.3057 30.6098L72.3171 33.2842L73.8399 35.756L72.4925 38.2521L73.6645 40.9184L71.9902 43.2038L72.7795 46.0079L70.8102 48.034L71.2088 50.9191L68.9764 52.6534V55.5628L66.5367 56.9648L66.1381 59.85L63.523 60.8873L62.7337 63.6914L60.007 64.3478L58.843 67.0141L56.0445 67.2816L54.5296 69.7534L51.7232 69.6237L49.8815 71.8524L47.1229 71.3256L44.9941 73.2787L42.3392 72.371L39.9633 74L37.4518 72.7195L34.8766 74L32.5724 72.3792L29.8457 73.2787L27.7808 71.3499L24.9584 71.8524L23.1725 69.648L20.3102 69.7534L18.8512 67.314L15.9969 67.0141L14.8887 64.3965L12.1062 63.6914L11.3567 60.944L8.70176 59.85L8.34299 57.0216L5.86343 55.5628L5.88735 52.7182L3.63104 50.9191L4.0536 48.0988L2.06039 46.0079L2.86564 43.2768L1.1754 40.9184L2.34741 38.3251L1 35.756L2.51484 33.349L1.53418 30.6098L3.35996 28.446L2.762 25.6014L4.86683 23.7131L4.66751 20.8036L7.01152 19.2395L7.21084 16.3301L9.74621 15.1063L10.3362 12.2617L13.0151 11.4108L13.9957 8.67156L16.7623 8.20151L18.1097 5.63246L20.9162 5.55952L22.5984 3.20118L25.3809 3.53346L27.3742 1.43445L30.0929 2.15573L32.3492 0.364692L34.9404 1.45877L37.4199 0V0ZM57.9899 15.5845C57.4318 15.0091 56.8418 14.458 56.2358 13.9312C47.3461 11.7755 36.3835 12.6832 30.2364 16.0789L30.1806 16.403C40.3141 12.8047 50.6708 13.9393 59.0263 16.6867C58.6915 16.3139 58.3486 15.9411 57.9899 15.5845ZM41.3745 7.01829C39.8915 6.79137 38.3687 6.66981 36.814 6.66981C28.5462 6.66981 21.0597 10.0736 15.6381 15.5845C10.2166 21.0954 6.86801 28.7053 6.86801 37.1094C6.86801 45.5216 10.2166 53.1315 15.6381 58.6343C19.3136 62.3704 23.9379 65.142 29.1122 66.536L29.0644 66.2604C22.9014 63.9183 20.2704 61.6167 19.505 60.9278C18.2851 59.8257 17.6234 59.1287 17.2008 57.6294V51.5593C18.8831 48.3419 26.5051 46.2348 31.7911 45.781C32.2296 45.7161 32.7319 45.4001 32.7478 44.8247C32.8356 43.066 32.0542 41.0886 31.4881 39.5164C30.938 37.9928 31.5679 35.5048 30.9938 33.2356C26.4732 33.0411 18.3888 31.4202 15.2475 28.4135C14.5379 27.7895 14.5299 26.274 15.2475 25.3825C17.7828 22.076 25.0062 18.9316 27.709 17.6997C27.6054 16.9622 27.6532 15.7385 27.0632 14.9362C26.6725 14.4013 26.7284 13.8988 27.1429 13.4855C30.7148 9.83047 36.1523 7.82872 41.3745 7.01829ZM58.6915 57.9049C58.843 57.7429 58.9944 57.5727 59.1379 57.4106L55.5821 55.7492C54.8964 56.2598 54.2028 56.6974 53.5012 57.054L54.9682 58.5776L54.9761 58.5695L54.9841 58.5857L55.008 58.61L54.9841 58.6181C55.1754 59.4285 55.2153 59.9553 55.1754 60.7576C55.295 60.709 55.3509 60.7009 55.4784 60.6523C55.7734 59.85 55.9648 59.2665 56.0365 58.3588C56.9614 58.1562 57.8464 57.9455 58.6676 57.7267L58.6915 57.9049ZM64.4239 48.9254C65.9308 45.2947 66.768 41.2993 66.768 37.1094C66.768 35.6912 66.6723 34.2972 66.4809 32.9276C64.4877 33.5678 61.7451 34.2081 59.5206 34.6538C58.9865 37.1256 58.3646 39.8892 56.9295 42.7581L56.9375 46.2024C56.9375 46.6886 57.1687 47.0695 57.7905 47.1668C59.6482 47.491 62.1517 48.1312 64.4239 48.9254ZM18.4127 53.1234L20.2385 52.9938L20.3421 53.0667L18.6678 53.6016C18.8911 53.9176 19.1701 54.2094 19.4412 54.4363C19.5767 54.5417 19.7282 54.5984 19.9913 54.5336L22.1519 54.0392L22.2636 54.104L20.3262 55.0847C20.3341 55.0847 20.6291 56.4219 20.669 56.5434C20.7647 56.6326 20.8603 56.7136 20.956 56.8028C20.9162 56.3084 20.8922 55.9761 20.956 55.4575C21.2191 55.6114 21.4982 55.7573 21.7852 55.8951C21.8888 55.9437 22.0324 55.9437 22.1519 55.887L24.5837 54.9307L24.7351 54.9712L22.6861 56.3165C22.734 57.1026 22.8775 57.6537 23.1565 58.375C23.2522 58.4317 23.3479 58.4884 23.4515 58.5452C23.3877 57.8725 23.3798 57.3539 23.4994 56.6488C23.8262 56.7703 24.1611 56.9 24.5119 57.0216C24.783 57.1107 24.9265 57.0135 25.0541 56.9648L27.6851 55.6925L27.8844 55.7492L25.8274 57.4511C25.8832 58.3669 26.0427 59.0314 26.3457 59.9067C26.4573 59.9472 26.5769 59.9958 26.6885 60.0445C26.6566 59.2178 26.6805 58.5857 26.832 57.751C27.2546 57.8725 27.6931 57.986 28.1316 58.0913C28.5621 58.2048 28.7375 58.1075 28.9767 57.9698L31.7672 56.3408L31.9585 56.3894L29.8617 58.529C29.9653 59.5258 30.1726 60.2714 30.4836 61.2358C30.6191 61.2682 30.7546 61.3087 30.8981 61.3411C30.9141 60.393 30.93 59.6717 31.0895 58.7478C31.5599 58.8369 32.0303 58.918 32.5087 58.999C32.995 59.0801 33.0747 58.9666 33.3458 58.7397L35.4586 56.8028L35.6819 56.819L34.1272 59.2665C34.2388 60.3281 34.462 61.1385 34.7889 62.1678C34.9404 62.1921 35.0361 62.2164 35.1955 62.2407C35.2752 61.2196 35.355 60.4254 35.5144 59.4285C36.2001 59.5096 36.8778 59.5825 37.5634 59.6474C38.1534 59.696 38.289 59.5825 38.4963 59.2746L39.8835 57.1188H40.0589L39.3892 59.777H39.3972C39.5407 60.863 39.7879 61.6329 40.0749 62.6783C40.2583 62.6865 40.3539 62.6946 40.5293 62.7027C40.7127 61.6815 40.8642 60.9278 40.9758 59.85C41.8768 59.8824 42.7777 59.8662 43.6706 59.8662C43.8939 59.8743 44.0932 59.7932 44.1012 59.4366L44.165 57.4916C43.0408 57.0621 41.9086 56.4867 40.7606 55.7411L30.938 49.4117C29.7102 48.6175 28.3708 48.5607 27.3502 48.6094C24.2169 48.7633 20.1428 49.5494 18.62 51.5512C18.2373 52.0537 18.1496 52.5967 18.4127 53.1234ZM49.2357 42.3448C48.6058 41.5749 48.0158 41.0643 46.8837 40.4889C46.3974 40.2458 46.3814 39.9783 46.3734 39.7514L46.1103 35.6182C46.0784 35.0914 46.2857 34.8564 46.8359 34.8564L48.9168 34.8402C52.4806 34.8159 51.5398 40.2458 49.9612 42.2961C49.6423 42.7176 49.443 42.6041 49.2357 42.3448ZM44.9144 47.6044C43.7424 48.5202 40.7765 48.0258 39.9154 47.6774C39.7799 47.6206 39.7241 47.7179 39.7958 47.8151L40.1945 48.974C40.7606 49.4684 41.3027 49.6548 42.1877 49.8736C43.4793 50.1978 43.9816 51.3162 43.5431 52.6534C42.2435 53.0343 40.8403 52.8641 39.74 52.621C38.2252 51.8267 36.3037 50.0924 35.5304 48.4959C35.1158 44.6302 34.3504 42.8391 33.282 40.8455C32.0223 38.4952 32.8037 36.299 33.1943 34.1757L32.5485 28.7863C32.5246 28.446 32.4608 28.0732 33.0508 27.6598C37.6671 24.3938 46.1422 25.3015 50.2243 29.151C50.6628 29.5643 50.615 29.9858 49.9453 30.0101C48.4783 30.083 46.0944 30.2856 44.5875 30.8934C43.5431 31.323 43.2481 32.6683 43.2561 33.7299L43.3438 40.805C42.7697 41.6478 41.6376 41.7207 40.8483 40.9184C40.4815 41.1048 39.9792 41.6073 39.8038 42.1665C39.748 42.3529 39.8118 42.5068 40.035 42.5068H42.5066C43.0009 42.5068 43.1923 42.596 43.4873 42.9688C43.7424 43.2849 43.9656 43.7711 44.149 44.2412C44.1968 44.3627 44.1729 44.4438 44.0294 44.4276C43.7344 44.4195 43.4554 44.4924 43.2401 44.5815C42.9292 44.7112 42.7697 44.7112 42.4349 44.5977C41.4143 44.2493 40.1307 44.4113 38.7913 45.3676L38.3926 45.0759C38.1215 45.165 37.8903 46.1538 38.2332 46.6319C38.4325 46.1051 38.9587 45.9025 39.3175 45.8782C40.3141 45.8134 41.2389 45.8458 42.4907 46.1294C42.8893 46.2267 43.0408 46.1943 43.4315 46.097C44.149 45.9268 44.4121 45.9431 44.7629 46.0322C45.0499 46.3321 45.3051 47.3046 44.9144 47.6044ZM35.937 33.349C35.4188 33.4058 34.8447 33.5678 34.4939 33.965C34.2467 34.2405 33.8561 34.1351 33.872 33.738C33.9039 32.8547 34.3424 31.5013 34.9404 30.7719C36.6864 30.3099 38.4325 30.626 39.7958 31.1609C40.7685 31.5418 41.1991 32.6197 41.1991 33.6813L41.1911 36.5502C41.1911 36.8663 40.9838 36.8825 40.8801 36.6069L40.3141 34.9942C40.0589 34.2567 39.756 33.9082 39.0464 33.8677C38.8311 33.8596 38.7036 33.9244 38.568 34.0541C37.9621 34.6052 36.822 34.4593 36.4552 33.6327C36.3436 33.3815 36.2001 33.3247 35.937 33.349ZM49.2118 59.1125L48.8131 58.3102C47.4258 58.3588 46.0067 58.1319 44.5636 57.6294L45.0739 59.931L45.0659 59.9391C45.2891 60.9765 45.5363 61.7058 45.7276 62.6702C45.911 62.6621 45.9907 62.6459 46.1661 62.6297C46.3495 61.6005 46.4611 60.8144 46.5409 59.7284C47.3461 59.6717 48.1593 59.5906 48.9806 59.5015C49.4111 59.4529 49.2995 59.2584 49.2118 59.1125ZM53.852 58.7802L53.0387 57.2809C51.8986 57.8077 50.7425 58.1319 49.5626 58.2534L50.5671 59.2989H50.5831L50.5911 59.3232C50.8063 60.3443 50.902 61.0575 50.9259 61.9733C51.0535 61.949 51.0934 61.9247 51.2209 61.9003C51.5 60.8954 51.6993 60.1498 51.8269 59.1206C52.5125 59.0152 53.1902 58.9018 53.852 58.7802Z" fill="black"/>
<path d="M122.53 62.4757C120.417 65.0285 117.212 66.6413 113.433 66.6413H99.1456V10.3491H112.955C115.035 10.3491 117.053 10.6651 118.95 11.6133C122.729 13.5016 125.217 17.343 125.217 22.1813V54.6307C125.217 57.4834 124.34 60.2794 122.53 62.4757ZM83.6863 10.3491C86.4369 10.3491 89.1955 10.3491 91.9461 10.3491V66.6413H83.6863V10.3491ZM238.559 65.0366C237.227 66.3738 235.601 66.6332 233.895 66.6332H219.615C217.821 66.6332 216.195 66.1712 214.983 64.8097C214.09 63.8129 213.556 62.4676 213.556 60.9602V16.1517C213.556 15.0009 213.819 13.8501 214.465 12.8371C215.437 11.3135 217.12 10.3491 219.153 10.3491H234.429C235.832 10.3491 237.219 10.7543 238.32 11.7349C239.603 12.8695 240.185 14.466 240.185 16.1598V60.7657C240.185 62.3703 239.715 63.8858 238.559 65.0366ZM231.925 58.8206V18.1778H221.824V58.8206H231.925ZM207.05 64.599C205.942 66.001 204.275 66.6413 202.537 66.6413H187.875C186.169 66.6413 184.662 66.1064 183.506 64.7935C182.486 63.6508 182.127 62.2406 182.127 60.7413V16.1679C182.127 14.9847 182.406 13.8096 183.084 12.7884C184.088 11.281 185.771 10.3491 187.724 10.3491H202.521C204.076 10.3491 205.567 10.8272 206.683 11.9699C207.792 13.0964 208.278 14.5957 208.278 16.1517V29.5399C205.511 29.5399 202.745 29.5399 199.978 29.5399V18.1778H190.395V58.8125H199.978V45.9916H195.298L193.592 38.2601H208.278V60.4577C208.278 61.957 207.983 63.4239 207.05 64.599ZM159.763 66.6413V10.3491C162.514 10.3491 165.264 10.3491 168.023 10.3491V58.8206H177.758L180.078 66.6413C173.309 66.6413 166.532 66.6413 159.763 66.6413ZM145.611 54.8577H137.551L135.621 66.6413C132.895 66.6413 130.168 66.6413 127.441 66.6413L137.878 10.2356C140.421 10.2356 142.964 10.2356 145.508 10.2356L155.864 66.6413C153.09 66.6413 150.331 66.6413 147.565 66.6413L145.611 54.8577ZM144.439 47.3936L141.601 30.4962L138.739 47.3936H144.439ZM116.941 54.1931V23.2916C116.941 22.2299 116.941 21.2979 116.423 20.3173C115.562 18.6883 113.903 18.1778 112.213 18.1778H107.413V58.8206H112.125C113.385 58.8206 114.701 58.5451 115.665 57.6455C116.63 56.7459 116.941 55.4817 116.941 54.1931Z" fill="black"/>
</g>
<defs>
<clipPath id="clip0_54_99">
<rect width="240" height="74" fill="white"/>
</clipPath>
</defs>
</svg>

<svg width="240" height="74" fill="none" xmlns="http://www.w3.org/2000/svg"><g clip-path="url(#a)" fill="#000"><path fill-rule="evenodd" clip-rule="evenodd" d="m37.42 0 2.416 1.459L42.49.365l2.192 1.775 2.783-.706 1.93 2.075 2.845-.308 1.627 2.326 2.862.105 1.292 2.529 2.822.51.933 2.691 2.727.9.55 2.796 2.575 1.272.167 2.845 2.376 1.629-.223 2.844 2.129 1.953-.614 2.78 1.842 2.229-.989 2.674 1.523 2.472-1.347 2.496 1.172 2.666-1.675 2.286.79 2.804-1.97 2.026.399 2.885-2.233 1.734v2.91l-2.44 1.402-.398 2.885-2.615 1.037-.79 2.804-2.726.657-1.164 2.666-2.799.268-1.514 2.471-2.807-.13-1.841 2.23-2.76-.527-2.128 1.953-2.655-.908L39.963 74l-2.511-1.28L34.877 74l-2.305-1.62-2.726.899-2.065-1.93-2.823.503-1.785-2.204-2.863.105-1.459-2.439-2.854-.3-1.108-2.617-2.783-.706-.75-2.747-2.654-1.094-.359-2.828-2.48-1.46.024-2.844-2.256-1.799.423-2.82-1.994-2.091.806-2.731-1.69-2.359 1.171-2.593L1 35.756l1.515-2.407-.98-2.74 1.825-2.163-.598-2.845 2.105-1.888-.2-2.91 2.345-1.564.199-2.909 2.535-1.224.59-2.844 2.68-.851.98-2.74 2.766-.47 1.348-2.569 2.806-.072 1.682-2.36 2.783.332 1.993-2.099 2.719.722 2.256-1.79 2.591 1.094L37.42 0Zm20.57 15.585a28.402 28.402 0 0 0-1.754-1.654c-8.89-2.155-19.852-1.248-26 2.148l-.055.324c10.133-3.598 20.49-2.464 28.845.284a26.768 26.768 0 0 0-1.036-1.103ZM41.374 7.018a30.134 30.134 0 0 0-4.56-.348c-8.268 0-15.754 3.404-21.176 8.915-5.421 5.51-8.77 13.12-8.77 21.524 0 8.413 3.349 16.023 8.77 21.525 3.676 3.736 8.3 6.508 13.474 7.902l-.048-.276c-6.163-2.342-8.794-4.643-9.559-5.332-1.22-1.102-1.882-1.8-2.304-3.299v-6.07c1.682-3.217 9.304-5.324 14.59-5.778.439-.065.94-.38.957-.956.088-1.759-.694-3.736-1.26-5.309-.55-1.523.08-4.011-.494-6.28-4.52-.195-12.605-1.816-15.746-4.822-.71-.625-.718-2.14 0-3.032 2.535-3.306 9.758-6.45 12.461-7.682-.104-.738-.056-1.961-.646-2.764-.39-.535-.335-1.037.08-1.45 3.572-3.656 9.01-5.657 14.231-6.468Zm17.317 50.887c.152-.162.303-.332.447-.494l-3.556-1.662c-.686.51-1.38.948-2.08 1.305l1.466 1.524.008-.009.008.017.024.024-.024.008c.191.81.231 1.337.191 2.14.12-.049.176-.057.303-.106.295-.802.487-1.386.558-2.293a61.02 61.02 0 0 0 2.632-.632l.023.178Zm5.733-8.98a30.771 30.771 0 0 0 2.344-11.816 30.18 30.18 0 0 0-.287-4.181c-1.993.64-4.736 1.28-6.96 1.726-.535 2.472-1.156 5.235-2.592 8.104l.008 3.444c0 .487.232.867.854.965 1.857.324 4.36.964 6.633 1.758Zm-46.011 4.198 1.825-.13.104.074-1.674.535c.223.316.502.607.773.834.136.106.287.162.55.098l2.16-.495.113.065-1.938.98c.008 0 .303 1.338.343 1.46.096.089.191.17.287.259-.04-.495-.064-.827 0-1.345.263.153.542.3.83.437a.447.447 0 0 0 .366-.008l2.432-.956.151.04-2.049 1.346c.048.786.192 1.337.47 2.058.096.057.192.113.296.17-.064-.672-.072-1.191.047-1.896.327.121.662.251 1.013.373.271.089.415-.008.542-.057l2.631-1.273.2.057-2.058 1.702c.056.916.216 1.58.519 2.456.111.04.23.089.343.138-.032-.827-.009-1.46.143-2.294.423.122.861.235 1.3.34.43.114.605.017.845-.121l2.79-1.63.192.05-2.097 2.139c.103.997.31 1.742.622 2.707.135.032.27.073.414.105.016-.948.032-1.67.192-2.593.47.089.94.17 1.419.251.486.081.566-.032.837-.26l2.113-1.936.223.016-1.555 2.447c.112 1.062.335 1.873.662 2.902.151.024.247.048.407.073.08-1.021.159-1.816.318-2.813.686.082 1.364.155 2.05.22.59.048.725-.066.932-.373l1.387-2.156h.176l-.67 2.658h.008c.144 1.086.39 1.856.678 2.901.183.009.279.017.454.025.184-1.022.335-1.775.447-2.853.9.032 1.802.016 2.695.016.223.008.422-.073.43-.43l.064-1.944a18.108 18.108 0 0 1-3.404-1.75l-9.823-6.33c-1.228-.794-2.567-.851-3.588-.803-3.133.154-7.207.94-8.73 2.942-.383.503-.47 1.046-.207 1.572Zm30.823-10.778c-.63-.77-1.22-1.28-2.352-1.856-.487-.243-.503-.51-.51-.738l-.264-4.133c-.032-.527.176-.762.726-.762l2.08-.016c3.565-.024 2.624 5.406 1.045 7.456-.319.422-.518.308-.725.049Zm-4.322 5.26c-1.172.915-4.138.42-4.999.072-.135-.056-.19.04-.12.138l.4 1.159c.566.494 1.108.68 1.993.9 1.291.324 1.794 1.442 1.355 2.78-1.3.38-2.703.21-3.803-.033-1.515-.794-3.436-2.529-4.21-4.125-.414-3.866-1.18-5.657-2.248-7.65-1.26-2.35-.478-4.547-.088-6.67l-.646-5.39c-.023-.34-.087-.713.503-1.126 4.616-3.266 13.091-2.358 17.173 1.491.439.413.391.835-.279.86-1.467.072-3.85.275-5.358.882-1.044.43-1.339 1.775-1.33 2.837l.087 7.075c-.574.843-1.706.916-2.496.113-.367.187-.869.69-1.044 1.248-.056.187.008.34.231.34h2.472c.494 0 .685.09.98.463.255.316.479.802.662 1.272.048.122.024.203-.12.187a1.963 1.963 0 0 0-.789.154c-.31.13-.47.13-.805.016-1.02-.349-2.304-.187-3.644.77l-.398-.292c-.272.089-.503 1.078-.16 1.556.2-.527.726-.73 1.085-.754a10.34 10.34 0 0 1 3.173.251c.398.098.55.065.94-.032.718-.17.981-.154 1.332-.065.287.3.542 1.273.151 1.572Zm-8.977-14.256c-.518.057-1.092.219-1.443.616-.247.275-.638.17-.622-.227.032-.883.47-2.237 1.068-2.966 1.746-.462 3.492-.146 4.856.389.973.38 1.403 1.459 1.403 2.52l-.008 2.87c0 .315-.207.331-.31.056l-.567-1.613c-.255-.737-.558-1.086-1.268-1.126a.587.587 0 0 0-.478.186c-.606.551-1.746.405-2.113-.421-.111-.252-.255-.308-.518-.284Zm13.275 25.764-.399-.803c-1.387.049-2.806-.178-4.25-.68l.51 2.301-.007.008c.223 1.038.47 1.767.662 2.731.183-.008.263-.024.438-.04.184-1.03.295-1.816.375-2.902a65.041 65.041 0 0 0 2.44-.227c.43-.048.319-.243.23-.389Zm4.64-.333-.813-1.5c-1.14.528-2.297.852-3.476.973l1.004 1.046h.016l.008.024c.215 1.021.311 1.734.335 2.65.127-.024.167-.048.295-.073.279-1.005.478-1.75.606-2.78a70.56 70.56 0 0 0 2.025-.34Z"/><path d="M122.53 62.476c-2.113 2.552-5.318 4.165-9.097 4.165H99.146V10.35h13.809c2.08 0 4.098.316 5.995 1.264 3.779 1.889 6.267 5.73 6.267 10.568v32.45c0 2.852-.877 5.648-2.687 7.845ZM83.686 10.349h8.26v56.292h-8.26V10.35ZM238.56 65.037c-1.332 1.337-2.958 1.596-4.664 1.596h-14.28c-1.794 0-3.42-.462-4.632-1.823-.893-.997-1.427-2.342-1.427-3.85V16.152c0-1.151.263-2.302.909-3.315.972-1.524 2.655-2.488 4.688-2.488h15.276c1.403 0 2.79.405 3.891 1.386 1.283 1.135 1.865 2.731 1.865 4.425v44.606c0 1.604-.47 3.12-1.626 4.27Zm-6.634-6.216V18.178h-10.101V58.82h10.101Zm-24.875 5.778c-1.108 1.402-2.775 2.042-4.513 2.042h-14.662c-1.706 0-3.213-.535-4.369-1.848-1.02-1.142-1.379-2.552-1.379-4.052V16.168c0-1.183.279-2.358.957-3.38 1.004-1.507 2.687-2.439 4.64-2.439h14.797c1.555 0 3.046.478 4.162 1.62 1.109 1.127 1.595 2.627 1.595 4.183V29.54h-8.3V18.178h-9.583v40.634h9.583v-12.82h-4.68l-1.706-7.732h14.686v22.198c0 1.499-.295 2.966-1.228 4.141Zm-47.287 2.042V10.35h8.26v48.472h9.735l2.32 7.82h-20.315Zm-14.152-11.783h-8.06l-1.93 11.783h-8.18l10.437-56.405h7.63l10.356 56.405h-8.299l-1.954-11.783Zm-1.172-7.464-2.838-16.898-2.862 16.898h5.7Zm-27.498 6.8V23.291c0-1.062 0-1.994-.518-2.975-.861-1.629-2.52-2.14-4.21-2.14h-4.8V58.82h4.712c1.26 0 2.576-.276 3.54-1.175.965-.9 1.276-2.164 1.276-3.453Z"/></g><defs><clipPath id="a"><path fill="#fff" d="M0 0h240v74H0z"/></clipPath></defs></svg>
